logo/solana.svg

<svg width="85" height="85" viewBox="0 0 85 85" fill="none" xmlns="http://www.w3.org/2000/svg">
  <path d="M42.5 85C65.9721 85 85 65.9721 85 42.5C85 19.0279 65.9721 0 42.5 0C19.0279 0 0 19.0279 0 42.5C0 65.9721 19.0279 85 42.5 85Z" fill="black"/>
  <path d="M66.7423 55.5439L58.4885 64.468C58.3091 64.6619 58.092 64.8164 57.8507 64.922C57.6095 65.0277 57.3493 65.0821 57.0862 65.082H17.9582C17.7715 65.082 17.5889 65.027 17.4328 64.9238C17.2766 64.8205 17.1538 64.6736 17.0794 64.501C17.005 64.3284 16.9822 64.1376 17.0139 63.9521C17.0455 63.7666 17.1303 63.5945 17.2576 63.4569L25.5179 54.5328C25.6968 54.3395 25.9132 54.1852 26.1537 54.0796C26.3942 53.974 26.6536 53.9193 26.9159 53.9188H66.0418C66.2285 53.9188 66.4111 53.9738 66.5672 54.077C66.7233 54.1803 66.8461 54.3272 66.9206 54.4998C66.995 54.6724 67.0178 54.8632 66.9861 55.0487C66.9545 55.2342 66.8697 55.4063 66.7423 55.5439ZM58.4885 37.5734C58.3091 37.3795 58.092 37.225 57.8507 37.1194C57.6095 37.0137 57.3493 36.9593 57.0862 36.9594H17.9582C17.7715 36.9594 17.5889 37.0144 17.4328 37.1176C17.2766 37.2208 17.1538 37.3678 17.0794 37.5404C17.005 37.713 16.9822 37.9038 17.0139 38.0893C17.0455 38.2748 17.1303 38.4469 17.2576 38.5845L25.5179 47.5086C25.6968 47.7019 25.9132 47.8561 26.1537 47.9618C26.3942 48.0674 26.6536 48.1221 26.9159 48.1225H66.0418C66.2285 48.1225 66.4111 48.0676 66.5672 47.9643C66.7233 47.8611 66.8461 47.7142 66.9206 47.5416C66.995 47.3689 67.0178 47.1782 66.9861 46.9927C66.9545 46.8072 66.8697 46.6351 66.7423 46.4974L58.4885 37.5734ZM17.9582 31.1631H57.0862C57.3493 31.1633 57.6095 31.1089 57.8507 31.0032C58.092 30.8976 58.3091 30.743 58.4885 30.5492L66.7423 21.6251C66.8697 21.4875 66.9545 21.3154 66.9861 21.1299C67.0178 20.9444 66.995 20.7536 66.9206 20.581C66.8461 20.4084 66.7233 20.2614 66.5672 20.1582C66.4111 20.055 66.2285 20 66.0418 20H26.9159C26.6536 20.0004 26.3942 20.0552 26.1537 20.1608C25.9132 20.2664 25.6968 20.4206 25.5179 20.614L17.2598 29.538C17.1325 29.6755 17.0478 29.8475 17.0161 30.0328C16.9844 30.218 17.007 30.4086 17.0811 30.5812C17.1553 30.7537 17.2778 30.9007 17.4336 31.0041C17.5894 31.1075 17.7717 31.1627 17.9582 31.1631Z" fill="url(#paint0_linear_1_21)"/>
  <defs>
  <linearGradient id="paint0_linear_1_21" x1="21.2206" y1="66.1564" x2="62.6251" y2="19.8579" gradientUnits="userSpaceOnUse">
    <stop offset="0.08" stop-color="#9945FF"/>
    <stop offset="0.3" stop-color="#8752F3"/>
    <stop offset="0.5" stop-color="#5497D5"/>
    <stop offset="0.6" stop-color="#43B4CA"/>
    <stop offset="0.72" stop-color="#28E0B9"/>
    <stop offset="0.97" stop-color="#19FB9B"/>
  </linearGradient>
  </defs>
</svg>

<svg xmlns="http://www.w3.org/2000/svg" fill="none" viewBox="0 0 85 85">
  <path fill="#000" d="M42.5 85C65.972 85 85 65.972 85 42.5S65.972 0 42.5 0 0 19.028 0 42.5 19.028 85 42.5 85Z"/>
  <path fill="url(#a)" d="m66.742 55.544-8.254 8.924a1.915 1.915 0 0 1-1.402.614H17.958a.953.953 0 0 1-.879-.581.973.973 0 0 1 .179-1.044l8.26-8.924a1.916 1.916 0 0 1 1.398-.614h39.126a.953.953 0 0 1 .879.58.973.973 0 0 1-.179 1.045Zm-8.254-17.97a1.915 1.915 0 0 0-1.402-.615H17.958a.953.953 0 0 0-.879.581.973.973 0 0 0 .179 1.044l8.26 8.925a1.918 1.918 0 0 0 1.398.614h39.126a.952.952 0 0 0 .879-.581.973.973 0 0 0-.179-1.045l-8.254-8.924Zm-40.53-6.41h39.128a1.9 1.9 0 0 0 1.403-.615l8.253-8.924a.968.968 0 0 0-.7-1.625H26.916a1.903 1.903 0 0 0-1.398.614l-8.258 8.924a.969.969 0 0 0 .698 1.625Z"/>
  <defs>
    <linearGradient id="a" x1="21.221" x2="62.625" y1="66.156" y2="19.858" gradientUnits="userSpaceOnUse">
      <stop offset=".08" stop-color="#9945FF"/>
      <stop offset=".3" stop-color="#8752F3"/>
      <stop offset=".5" stop-color="#5497D5"/>
      <stop offset=".6" stop-color="#43B4CA"/>
      <stop offset=".72" stop-color="#28E0B9"/>
      <stop offset=".97" stop-color="#19FB9B"/>
    </linearGradient>
  </defs>
</svg>
